X: 10541
M: 2/4
L: 1/16
K: D
V: 1 staves=3
|: fg |\
a4 a2b2 | b2a2f2a2 | b2a2f2d2 | edef efge |\
a4 a2b2 | b2a2 f4 | a2f2 edef | d4 z2 :|
V: 2
|: de |\
f4 f2g2 | g2f2d2f2 | g2f2d2A2 | cBcd cdec |\
f4 f2g2 | g2f2 d4 | F2A2 GFGA | F4 z2 :|
V: 3 clef=bass middle=d
z2 |\
d2d2d2d2 | d2d2 d2d2 | G2G2 A2A2 | d2A2F2A2 |\
d2d2d2d2 | d2d2d2d2 | G2G2 A2A2 | d4 z2 :|
|: d2 |\
d4 d2d2 | d2d2d2d2 | d2d2d2f2 | a2a2a2z2 |\
d4 d2d2 | d2d2 d4 | d2d2A2A2 | d4 z2 :|


